images/icon-dog.svg

<svg width="28" height="29" viewBox="0 0 28 29" fill="none" xmlns="http://www.w3.org/2000/svg">
<rect y="0.358887" width="28" height="28" rx="4" fill="#83D187"/>
<path d="M22.8737 18.1639V19.1428C22.8737 19.7906 22.4432 20.3446 21.8399 20.5609C21.8402 20.5855 21.8408 20.61 21.8408 20.6347V23.3039C23.0952 23.0566 24.0408 21.9986 24.0408 20.7347V18.1637L22.8737 18.1639Z" fill="#DDFFDF"/>
<path d="M14.7675 10.8073V9.78374C14.7675 8.89776 14.4219 8.03902 13.794 7.3654C13.2062 6.73483 12.4331 6.33416 11.5976 6.22298C11.4127 6.05295 11.075 5.74273 10.7364 5.4331C10.4436 5.16522 10.2096 4.95184 10.0403 4.79891C9.94329 4.71121 9.86196 4.63815 9.80428 4.58727C9.67809 4.47594 9.44341 4.26851 9.09566 4.40259L8.7235 4.54639L8.77233 6.74454L8.68062 6.80745C8.08217 7.21827 7.68132 7.85058 7.57833 8.54464L5.98195 9.5563L5.97661 10.2514C5.9728 10.7815 6.18703 11.2804 6.5801 11.6566C6.97332 12.0328 7.497 12.2399 8.05501 12.2399H9.27068V13.2591C9.27068 13.7655 9.35628 14.2657 9.52474 14.7461L10.4259 17.3143V21.2155C9.48049 21.4265 8.77309 22.2341 8.77095 23.1953L8.76897 23.3572L12.2484 23.3577C12.3436 22.492 13.0121 21.7851 13.8855 21.5879V20.9076C13.8855 19.0463 15.4793 17.5322 17.4384 17.5322H17.5243V18.641H17.4384C16.1229 18.641 15.0527 19.6577 15.0527 20.9076V22.6416H14.3812C13.9194 22.6416 13.5311 22.9479 13.4295 23.3578L20.7081 23.359V20.6348C20.7081 18.2147 19.7532 15.9053 18.0193 14.1324L14.7675 10.8073Z" fill="#DDFFDF"/>
</svg>

<svg xmlns="http://www.w3.org/2000/svg" width="28" height="29" fill="none"><rect width="28" height="28" y=".359" fill="#83D187" rx="4"/><path fill="#DDFFDF" d="M22.874 18.164v.979c0 .648-.43 1.202-1.034 1.418v2.743c1.255-.247 2.2-1.305 2.2-2.57v-2.57h-1.166ZM14.768 10.807V9.784c0-.886-.346-1.745-.974-2.419a3.66 3.66 0 0 0-2.196-1.142 442.393 442.393 0 0 0-1.558-1.424l-.236-.212c-.126-.111-.36-.318-.708-.184l-.373.143.05 2.199-.092.062c-.599.411-1 1.044-1.103 1.738L5.982 9.556l-.005.695c-.004.53.21 1.03.603 1.406a2.12 2.12 0 0 0 1.475.583h1.216v1.02c0 .505.085 1.006.254 1.486l.9 2.568v3.901c-.945.212-1.652 1.02-1.654 1.98l-.002.162h3.48c.095-.865.763-1.572 1.636-1.77v-.68c0-1.86 1.594-3.375 3.553-3.375h.086v1.109h-.086c-1.315 0-2.385 1.017-2.385 2.267v1.734h-.672a.97.97 0 0 0-.951.716l7.278.001v-2.724c0-2.42-.955-4.73-2.689-6.503l-3.251-3.325Z"/></svg>
